dhis-2/dhis-support/dhis-support-system/src/main/resources/SVGs/transgender_negative.svg

<svg width="48" height="48" viewBox="0 0 48 48" fill="none" xmlns="http://www.w3.org/2000/svg">
<path fill-rule="evenodd" clip-rule="evenodd" d="M0 0V47.9994H47.9994V0H0ZM23.9997 8.08C25.9327 8.08 27.4997 9.64698 27.4997 11.5799C27.4997 13.5128 25.9327 15.0798 23.9997 15.0798C22.0667 15.0798 20.4997 13.5128 20.4997 11.5799C20.4997 9.64698 22.0667 8.08 23.9997 8.08ZM23.6517 15.9408H23.9997H24.3397H27.5267V15.9488C28.1026 15.9568 28.6506 16.2758 28.9216 16.8298L32.7906 24.7557C33.1736 25.5397 32.8506 26.4797 32.0656 26.8627C31.2816 27.2457 30.3416 26.9227 29.9586 26.1387L27.2397 20.3827C26.1787 24.4197 26.7737 26.3607 29.7476 31.2316H27.5267V38.3435C27.5267 39.2165 26.8237 39.9195 25.9507 39.9195C25.0777 39.9195 24.3747 39.2165 24.3747 38.3435V31.2316H23.9997H23.6147V38.3435C23.6147 39.2165 22.9117 39.9195 22.0387 39.9195C21.1657 39.9195 20.4647 39.2165 20.4647 38.3435V29.0756V27.9297V26.7437L20.5757 20.8807L18.0388 26.1387C17.6558 26.9227 16.7178 27.2457 15.9338 26.8627C15.1488 26.4797 14.8238 25.5397 15.2068 24.7557L19.0758 16.8298C19.3458 16.2778 19.8918 15.9628 20.4647 15.9508V15.9428L23.6517 15.9408Z" fill="#333333"/>
</svg>

<?xml version="1.0" encoding="UTF-8" standalone="no"?>
<!-- Created with Inkscape (http://www.inkscape.org/) -->
<svg id="svg8" xmlns:rdf="http://www.w3.org/1999/02/22-rdf-syntax-ns#" xmlns="http://www.w3.org/2000/svg" xmlns:osb="http://www.openswatchbook.org/uri/2009/osb" height="48" width="48" version="1.1" xmlns:cc="http://creativecommons.org/ns#" viewBox="0 0 12.7 12.7" xmlns:dc="http://purl.org/dc/elements/1.1/">
 <title id="title4753">UIO-icon</title>
 <metadata id="metadata5">
  <rdf:RDF>
   <cc:Work rdf:about="">
    <dc:format>image/svg+xml</dc:format>
    <dc:type rdf:resource="http://purl.org/dc/dcmitype/StillImage"/>
    <dc:title>UIO-icon</dc:title>
    <dc:creator>
     <cc:Agent>
      <dc:title>Joaquín Urbano</dc:title>
     </cc:Agent>
    </dc:creator>
    <dc:rights>
     <cc:Agent>
      <dc:title>GPL</dc:title>
     </cc:Agent>
    </dc:rights>
   </cc:Work>
  </rdf:RDF>
 </metadata>
 <g id="layer1" transform="translate(0,-284.3)">
  <path id="rect921" d="m0 0v48h48v-48h-48zm24 8.0801c1.933 0 3.5 1.567 3.5 3.4999 0 1.933-1.567 3.5-3.5 3.5s-3.5-1.567-3.5-3.5c0-1.9329 1.567-3.4999 3.5-3.4999zm-0.348 7.8609h0.348 0.34 3.187v0.008c0.576 0.008 1.124 0.327 1.395 0.881l3.869 7.926c0.383 0.784 0.06 1.724-0.725 2.107-0.784 0.383-1.724 0.06-2.107-0.724l-2.719-5.756c-1.061 4.037-0.466 5.978 2.508 10.849h-2.221v7.112c0 0.873-0.703 1.576-1.576 1.576s-1.576-0.703-1.576-1.576v-7.112h-0.375-0.385v7.112c0 0.873-0.703 1.576-1.576 1.576s-1.574-0.703-1.574-1.576v-9.268-1.146-1.186l0.111-5.863-2.537 5.258c-0.383 0.784-1.321 1.107-2.105 0.724-0.785-0.383-1.11-1.323-0.727-2.107l3.869-7.926c0.27-0.552 0.816-0.867 1.389-0.879v-0.008l3.187-0.002z" fill-rule="evenodd" transform="matrix(.26458 0 0 .26458 0 284.3)" fill="#333"/>
 </g>
</svg>
